uiw/cloud-upload-o.svg

<svg xmlns="http://www.w3.org/2000/svg" viewBox="0 0 20 20" height="1em" width="1em">
  <path fill="#555" d="M5.66804138,8.66808275 C5.67799143,9.04225065 5.41255477,9.36227625 5.05670726,9.40514207 C3.77489725,9.55955044 2.8557604,9.95686777 2.27611216,10.5744566 C1.70116045,11.1870415 1.40285772,11.9847429 1.378298,12.9241005 C1.46740942,13.9322425 1.80021156,14.6871262 2.37490988,15.2269753 C2.9468577,15.7642407 3.80632101,16.0487706 4.97760925,16.056482 L15.6472047,16.0579667 C16.6436062,15.9910788 17.3772633,15.6141659 17.8994412,14.9191156 C18.5577709,14.0428391 18.6961907,13.2537287 18.5814753,12.37175 C18.495413,11.7100676 18.0856972,10.8698107 17.4238667,10.2986362 C16.9193767,9.86325016 16.1231849,9.59778927 15.0226992,9.52911027 C14.6493828,9.50581238 14.3616225,9.17626074 14.3735273,8.78565952 C14.40768,7.66509669 14.1062696,6.66255526 13.4608949,5.7524159 C12.5890819,4.52294193 11.2375437,3.89520144 9.90978452,3.9464203 C8.61147904,3.99650298 7.4077551,4.60893432 6.53898715,5.76781103 C5.92737871,6.58365463 5.6380551,7.54045986 5.66804138,8.66808275 Z M14.5707986,4.89301361 C15.2688663,5.87746331 15.6608503,6.9683604 15.7417568,8.15047622 C16.8099478,8.29597685 17.666352,8.63573408 18.3035237,9.18562753 C19.2481915,10.0008969 19.8196346,11.1728288 19.9502875,12.1773418 C20.1110867,13.4136312 19.9052851,14.5868747 18.9860017,15.8104965 C18.2119634,16.8407882 17.1114625,17.4061653 15.6914844,17.5 L4.97326571,17.5 C3.48431279,17.490201 2.30080915,17.0983958 1.45140777,16.3005014 C0.604756899,15.5051908 0.12247116,14.4112385 0,12.974395 C0.0293593224,11.5984691 0.459369921,10.4485633 1.28988184,9.56369062 C2.00739533,8.79921263 3.01538942,8.30390322 4.29865723,8.06291436 C4.37488487,6.86823662 4.75978597,5.80036392 5.45153486,4.87761848 C6.57711843,3.3761674 8.16299924,2.56930207 9.85882446,2.5038849 C11.6274066,2.43566111 13.4180496,3.26734987 14.5707986,4.89301361 Z M9.68011734,7.13539223 L7.70053655,9.17683491 C7.42721348,9.45869933 7.42430446,9.9126919 7.69403906,10.1908557 C7.96377366,10.4690195 8.40400888,10.4660196 8.67733195,10.1841552 L9.464,9.373 L9.4648214,13.6117662 C9.4648214,13.9771646 9.7246658,14.2791439 10.0617963,14.3269363 L10.15552,14.3335251 C10.5369824,14.3335251 10.8462187,14.0103826 10.8462187,13.6117662 L10.8462187,13.6117662 L10.846,9.358 L11.6272106,10.1640535 C11.8969452,10.4422173 12.3371805,10.4392174 12.6105035,10.157353 C12.8838266,9.87548858 12.8867356,9.421496 12.617001,9.1433322 L10.6634102,7.12869168 C10.3936756,6.85052788 9.95344041,6.85352781 9.68011734,7.13539223 Z"/>
</svg>

<svg xmlns="http://www.w3.org/2000/svg" viewBox="0 0 20 20" height="1em" width="1em">
  <path fill="#555" d="M5.668 8.668a.712.712 0 0 1-.611.737c-1.282.155-2.201.552-2.78 1.17-.576.612-.874 1.41-.899 2.35.09 1.007.422 1.762.997 2.302.572.537 1.431.822 2.603.83l10.67.001c.996-.067 1.73-.444 2.251-1.139.659-.876.797-1.665.682-2.547-.086-.662-.495-1.502-1.157-2.073-.505-.436-1.3-.701-2.401-.77-.374-.023-.661-.353-.65-.743a4.835 4.835 0 0 0-.912-3.034c-.872-1.23-2.223-1.857-3.551-1.806-1.299.05-2.502.663-3.371 1.822-.612.816-.9 1.772-.871 2.9Zm8.903-3.775a6.288 6.288 0 0 1 1.17 3.257c1.069.146 1.925.486 2.563 1.036.944.815 1.516 1.987 1.646 2.991.161 1.237-.045 2.41-.964 3.633-.774 1.03-1.875 1.596-3.295 1.69H4.973c-1.489-.01-2.672-.402-3.522-1.2C.605 15.506.122 14.412 0 12.975c.03-1.376.46-2.525 1.29-3.41.717-.765 1.725-1.26 3.009-1.501.076-1.195.46-2.263 1.153-3.185C6.577 3.377 8.163 2.57 9.859 2.505c1.768-.068 3.559.763 4.712 2.389ZM9.68 7.135 7.7 9.177a.733.733 0 0 0-.007 1.014.68.68 0 0 0 .983-.007l.787-.811v4.239c0 .365.26.667.598.715l.094.007c.381 0 .69-.324.69-.722V9.358l.781.806a.68.68 0 0 0 .984-.007.733.733 0 0 0 .006-1.014L10.663 7.13a.68.68 0 0 0-.983.006Z"/>
</svg>
